X: 25252
T: Man From Glengarry, The
R: reel
M: 4/4
K: Amixolydian
|:a|cA ~A2 ceef|fecA GBBa|cA ~A2 ceef|fecB cAA:|
|:c|e3f fefa|fecA GBBc|1 e2 ef fefa|fecB cAA:|2 e2 ef feae|cedB cAA:|
|:a|fecB ~A2 cA|~A2 cA GBBa|fecB ~A2 cA|cedB cAA:|
|:e|aece fece|eAcA GBBe|1 aece fece|cedB cAA:|2 aece a2 ad|cedB cAA:|

